src/assets/tokens/ART.svg

<?xml version="1.0" encoding="UTF-8"?>
<svg viewBox="0 0 32 32" xmlns="http://www.w3.org/2000/svg">
<circle cx="16" cy="16" r="16" fill="#F26B21"/>
<path d="m24.889 15.583l-2.3517-2.3848-6e-4 -3.3718c0-0.25673-0.2058-0.46482-0.4597-0.46502l-3.3273-0.00224-2.3542-2.3834c-0.1713-0.18041-0.4796-0.18049-0.651-1.9e-4l-2.3544 2.3812-3.3285 6.2e-4c-0.254 4e-5 -0.45989 0.20805-0.46005 0.46478l-0.00234 3.5627c-0.01311 0.402 0.51259 0.6233 0.78579 0.3287l1.2452-1.2615h1.7239l-3.6229 3.6691c-0.08611 0.0872-0.13446 0.2054-0.13446 0.3286l1.5e-4 0.8512-1.3757-1.3951 0.99467-1.0077-0.65137-0.657-1.3188 1.3361c-0.17913 0.1815-0.17921 0.4753-1.5e-4 0.6568l2.3516 2.3847 5.7e-4 3.3719c4e-5 0.2567 0.20585 0.4648 0.45976 0.465l3.3273 0.0023 2.3542 2.3833c0.1713 0.1804 0.4796 0.1805 0.651 2e-4l2.3544-2.3812 3.3285-6e-4c0.254-1e-4 0.4599-0.2081 0.46-0.4648l0.0024-3.5627c0.0135-0.4024-0.514-0.623-0.7858-0.3288l-1.2453 1.2615h-1.7238l3.6229-3.669c0.0861-0.0872 0.1345-0.2054 0.1345-0.3286l-2e-4 -0.8513 1.6997 1.7237 0.6518-0.6567zm-8.8244 8.2717l-3.4095-3.4517v-1.7458l3.6208 3.6669c0.0853 0.0867 0.2049 0.1367 0.3257 0.1365l0.8414-1e-4 -1.3784 1.3942zm3.4147-6.5143l-1.999 2.0245h-2.8261l-1.999-2.0245v-2.8638l1.999-2.0245h2.8261l1.999 2.0245v2.8638zm-3.6209-7.8475c-0.0853-0.08674-0.2048-0.13655-0.3257-0.13651l-0.8414 1.6e-4 1.3785-1.3942 3.4094 3.4517v1.7458l-3.6208-3.667z" fill="#fff"/>
<path d="m23.125 16.751l-0.6507 0.6578 0.6507 0.6577 0.6506-0.6577-0.6506-0.6578z" fill="#fff"/>
</svg>

<svg width="32" height="32" viewBox="0 0 32 32" fill="none" xmlns="http://www.w3.org/2000/svg">
    <circle cx="16" cy="16" r="16" fill="#F26B21"/>
    <path d="M24.8889 15.5832L22.5372 13.1984L22.5366 9.82657C22.5366 9.56984 22.3308 9.36175 22.0769 9.36155L18.7496 9.35931L16.3954 6.97594C16.2241 6.79553 15.9158 6.79545 15.7444 6.97575L13.39 9.35698L10.0615 9.3576C9.8075 9.35764 9.60161 9.56565 9.60145 9.82238L9.59911 13.3851C9.586 13.7871 10.1117 14.0084 10.3849 13.7138L11.6301 12.4523H13.354L9.73108 16.1214C9.64497 16.2086 9.59662 16.3268 9.59662 16.45L9.59677 17.3012L8.22103 15.9061L9.2157 14.8984L8.56433 14.2414L7.24548 15.5775C7.06635 15.759 7.06627 16.0528 7.24533 16.2343L9.59697 18.619L9.59754 21.9909C9.59758 22.2476 9.80339 22.4557 10.0573 22.4559L13.3846 22.4582L15.7388 24.8415C15.9101 25.0219 16.2184 25.022 16.3898 24.8417L18.7442 22.4605L22.0727 22.4599C22.3267 22.4598 22.5326 22.2518 22.5327 21.9951L22.5351 18.4324C22.5486 18.03 22.0211 17.8094 21.7493 18.1036L20.504 19.3651H18.7802L22.4031 15.6961C22.4892 15.6089 22.5376 15.4907 22.5376 15.3675L22.5374 14.5162L24.2371 16.2399L24.8889 15.5832ZM16.0645 23.8549L12.655 20.4032V18.6574L16.2758 22.3243C16.3611 22.411 16.4807 22.461 16.6015 22.4608L17.4429 22.4607L16.0645 23.8549ZM19.4792 17.3406L17.4802 19.3651H14.6541L12.6551 17.3406V14.4768L14.6541 12.4523H17.4802L19.4792 14.4768V17.3406ZM15.8583 9.49314C15.773 9.4064 15.6535 9.35659 15.5326 9.35663L14.6912 9.35679L16.0697 7.96264L19.4791 11.4143V13.1601L15.8583 9.49314Z" fill="white"/>
    <path d="M23.1251 16.7508L22.4744 17.4086L23.1251 18.0663L23.7757 17.4086L23.1251 16.7508Z" fill="white"/>
</svg>
